X: 33619
T: Rakish Paddy
R: reel
M: 4/4
K: Dmixolydian
c3B c2AB|cBAG FDD2|Add^c defe|dcAG FGAB|
c2cB c2AB|cBAG FDD2|DEFG ABcA|dcAG FDDB|
c3B cBAB|cBAG FGAB|Add^c defe|dcAG FGAB|
c2cB cBAB|cBAG FDD2|DEFG ABcA|dcAG FDD2||
|:egg2 aggf|eggf ed^cd|eaa2 baag|eaag ed^cd|
egg2 agge|effe defg|afge fde^c|1 dcAG FDD2:|2 dcAG FGAB||

